src/icons/outline/symbols/column.svg

<svg width="24" height="24" viewBox="0 0 24 24" fill="none" xmlns="http://www.w3.org/2000/svg">
<g clip-path="url(#clip0_4605_383)">
<path fill-rule="evenodd" clip-rule="evenodd" d="M20.7998 1C22.0148 1 23 1.98516 23 3.2002V20.7998C23 22.0148 22.0148 23 20.7998 23H3.2002C1.98516 23 1 22.0148 1 20.7998V3.2002C1 1.98516 1.98518 1 3.2002 1H20.7998ZM3.2002 2.4668C2.79519 2.4668 2.4668 2.79519 2.4668 3.2002V20.7998C2.4668 21.2048 2.79519 21.5332 3.2002 21.5332H7.84473V2.4668H3.2002ZM9.31152 21.5332H14.6885V2.4668H9.31152V21.5332ZM16.1553 21.5332H20.7998C21.2048 21.5332 21.5332 21.2048 21.5332 20.7998V3.2002C21.5332 2.82053 21.2447 2.50829 20.875 2.4707L20.7998 2.4668H16.1553V21.5332Z" fill="#3C3B44"/>
</g>
<defs>
<clipPath id="clip0_4605_383">
<rect width="24" height="24" fill="white"/>
</clipPath>
</defs>
</svg>

<svg xmlns="http://www.w3.org/2000/svg" width="24" height="24" fill="none" viewBox="0 0 24 24"><g clip-path="url(#a)"><path fill="currentColor" fill-rule="evenodd" d="M20.8 1A2.2 2.2 0 0 1 23 3.2v17.6a2.2 2.2 0 0 1-2.2 2.2H3.2A2.2 2.2 0 0 1 1 20.8V3.2A2.2 2.2 0 0 1 3.2 1zM3.2 2.467a.733.733 0 0 0-.733.733v17.6c0 .405.328.733.733.733h4.645V2.467zm6.112 19.066h5.377V2.467H9.311zm6.843 0H20.8a.733.733 0 0 0 .733-.733V3.2a.733.733 0 0 0-.658-.73l-.075-.003h-4.645z" clip-rule="evenodd"/></g><defs><clipPath id="a"><path fill="currentColor" d="M0 0h24v24H0z"/></clipPath></defs></svg>
